X: 12588
T: Farewell To The Creeks
R: jig
M: 6/8
K: Dmixolydian
|:d|A2 F F>EF|G>AB A2 G|FGA DFA|A>GF E2 d|
A2 F F>EF|G>AB A2 G|F>GA A>GF|E3 D2:|
|:d|F3 G2B|A2 F F>ED|F2 A G2 B|A>FD E2 d|
F3 G2B|A2 F F>ED|F>GA A>GF|E3 D2:|

